src/assets/icons/svg/envelopeWithStars.svg

<?xml version="1.0" encoding="UTF-8"?>
<svg width="163px" height="152px" viewBox="0 0 163 152" version="1.1" xmlns="http://www.w3.org/2000/svg" xmlns:xlink="http://www.w3.org/1999/xlink">
    <!-- Generator: Sketch 58 (84663) - https://sketch.com -->
    <title>Group 4 Copy 2@3x</title>
    <desc>Created with Sketch.</desc>
    <g id="MVP" stroke="none" stroke-width="1" fill="none" fill-rule="evenodd">
        <g id="Kirjautuneen-käyttäjän-näkymä-Auki-Copy-2" transform="translate(-182.000000, -487.000000)">
            <g id="Group-4-Copy-2" transform="translate(187.000000, 493.000000)">
                <path d="M73.4428169,39.6329734 L95.1770974,61.3065181 L110.948354,77.0337028 C111.649965,77.7333525 112.172162,78.5448234 112.514866,79.4109256 C113.640337,80.6524454 114.326015,82.3005996 114.326015,84.1089025 L114.326015,135 C114.326015,138.865993 111.192008,142 107.326015,142 L29.6739847,142 C25.8079914,142 22.6739847,138.865993 22.6739847,135 L22.6739847,84.1089025 C22.6739847,82.2976885 23.3618719,80.6471392 24.4906432,79.4042579 C24.8394898,78.5242995 25.3678121,77.7156253 26.0516456,77.0337028 L63.5571829,39.6329734 C66.28926,36.908531 70.7107399,36.908531 73.4428169,39.6329734 Z" id="Combined-Shape" stroke="#000000" stroke-width="8"></path>
                <path d="M23,135 L55,109" id="Path-4" stroke="#000000" stroke-width="8" fill="#D8D8D8"></path>
                <path d="M113,135 L80,109" id="Path-5" stroke="#000000" stroke-width="8" fill="#D8D8D8"></path>
                <polygon id="Combined-Shape" fill="#000000" fill-rule="nonzero" transform="translate(68.444297, 99.502493) rotate(180.000000) translate(-68.444297, -99.502493) " points="68.3616602 87.0921908 111.580103 119.928882 116.419897 113.558923 68.1810534 76.9078092 20.4686967 115.902823 25.5313033 122.097177"></polygon>
                <path d="M75.1211073,101 C73.6678201,74.1180556 85.2941176,57.7847222 110,52" id="Path-3" stroke="#000000" stroke-width="6" stroke-linecap="round"></path>
                <path d="M29.1176471,100 C27.7058824,72.5694444 39,55.9027778 63,50" id="Path-3" stroke="#000000" stroke-width="6" stroke-linecap="round" transform="translate(46.000000, 75.000000) scale(-1, 1) translate(-46.000000, -75.000000) "></path>
                <polygon id="Star" stroke="#000000" stroke-width="5" fill="#FFC61E" stroke-linecap="round" points="131 56 118.068724 62.7983739 120.538378 48.3991869 110.076757 38.2016261 124.534362 36.1008131 131 23 137.465638 36.1008131 151.923243 38.2016261 141.461622 48.3991869 143.931276 62.7983739"></polygon>
                <polygon id="Star" stroke="#000000" stroke-width="5" fill="#FFC61E" stroke-linecap="round" transform="translate(16.000000, 41.000000) rotate(90.000000) translate(-16.000000, -41.000000) " points="16 51.5337474 6.11145618 57 8 45.4222912 0 37.2229124 11.0557281 35.5337474 16 25 20.9442719 35.5337474 32 37.2229124 24 45.4222912 25.8885438 57"></polygon>
                <polygon id="Star-Copy-2" stroke="#000000" stroke-width="5" fill="#FFC61E" stroke-linecap="round" transform="translate(49.500000, 13.500000) rotate(90.000000) translate(-49.500000, -13.500000) " points="49.5 22.3878494 41.1565412 27 42.75 17.2313082 36 10.3130823 45.3282706 8.88784938 49.5 0 53.6717294 8.88784938 63 10.3130823 56.25 17.2313082 57.8434588 27"></polygon>
                <polygon id="Star" stroke="#000000" stroke-width="5" fill="#FFC61E" stroke-linecap="round" transform="translate(89.500000, 15.500000) rotate(90.000000) translate(-89.500000, -15.500000) " points="89.5 25.0462086 80.5385072 30 82.25 19.5077014 75 12.0770143 85.0192536 10.5462086 89.5 1 93.9807464 10.5462086 104 12.0770143 96.75 19.5077014 98.4614928 30"></polygon>
            </g>
        </g>
    </g>
</svg>

<?xml version="1.0" encoding="UTF-8"?>
<svg version="1.1" viewBox="0 0 163 152" xmlns="http://www.w3.org/2000/svg"><g fill="none" fill-rule="evenodd"><g transform="translate(-182 -487)"><g transform="translate(187 493)"><path id="b" d="m73.443 39.633 37.506 37.401c0.70161 0.69965 1.2238 1.5111 1.5665 2.3772 1.1255 1.2415 1.8111 2.8897 1.8111 4.698v50.891c0 3.866-3.134 7-7 7h-77.652c-3.866 0-7-3.134-7-7v-50.891c0-1.8112 0.68789-3.4618 1.8167-4.7046 0.34885-0.87996 0.87717-1.6886 1.561-2.3706l37.506-37.401c2.7321-2.7244 7.1536-2.7244 9.8856 0z" stroke="#000" stroke-width="8"/><path d="m23 135 32-26" fill="#D8D8D8" stroke="#000" stroke-width="8"/><path d="m113 135-33-26" fill="#D8D8D8" stroke="#000" stroke-width="8"/><polygon transform="translate(68.444 99.502) rotate(180) translate(-68.444 -99.502)" points="68.362 87.092 111.58 119.93 116.42 113.56 68.181 76.908 20.469 115.9 25.531 122.1" fill="#000" fill-rule="nonzero"/><path id="a" d="m75.121 101c-1.4533-26.882 10.173-43.215 34.879-49" stroke="#000" stroke-linecap="round" stroke-width="6"/><path transform="translate(46 75) scale(-1 1) translate(-46 -75)" d="m29.118 100c-1.4118-27.431 9.8824-44.097 33.882-50" stroke="#000" stroke-linecap="round" stroke-width="6"/><polygon id="Star" points="131 56 118.07 62.798 120.54 48.399 110.08 38.202 124.53 36.101 131 23 137.47 36.101 151.92 38.202 141.46 48.399 143.93 62.798" fill="#FFC61E" stroke="#000" stroke-linecap="round" stroke-width="5"/><polygon id="c" transform="translate(16 41) rotate(90) translate(-16 -41)" points="16 51.534 6.1115 57 8 45.422 0 37.223 11.056 35.534 16 25 20.944 35.534 32 37.223 24 45.422 25.889 57" fill="#FFC61E" stroke="#000" stroke-linecap="round" stroke-width="5"/><polygon transform="translate(49.5 13.5) rotate(90) translate(-49.5 -13.5)" points="49.5 22.388 41.157 27 42.75 17.231 36 10.313 45.328 8.8878 49.5 0 53.672 8.8878 63 10.313 56.25 17.231 57.843 27" fill="#FFC61E" stroke="#000" stroke-linecap="round" stroke-width="5"/><polygon transform="translate(89.5 15.5) rotate(90) translate(-89.5 -15.5)" points="89.5 25.046 80.539 30 82.25 19.508 75 12.077 85.019 10.546 89.5 1 93.981 10.546 104 12.077 96.75 19.508 98.461 30" fill="#FFC61E" stroke="#000" stroke-linecap="round" stroke-width="5"/></g></g></g></svg>
